X: 5464
T: Bunch Of Roses, The
R: jig
M: 6/8
K: Dminor
|:e|f2 e fga|g2 f efg|f2 d def|ecA A2 e|
f2 e fga|g2 f efg|f2 d e2 ^c|d3 d2:|
|:d|c2 A AGF|c2 A A2 d|c2 A BAG|F2 D D2d|
c2 A AGF|c2 A A2 e|f2 d e2 ^c|1 d2 e f2:|2 d3 d2||

